X:1
T:Title
%%score { ( 1 3 ) | 2 }
L:1/8
M:3/4
K:G
V:1 treble nm="Grand Piano"
V:3 treble 
V:2 bass 
V:1
 z2 z2[Q:1/4=90] [DB]>[B,A] | [B,G]3 D EG | A2 [B,G]2 B>c | dB A2 G2 |[M:2/4] A4[K:bass] | %5
[M:1/4][K:treble] [Dd]>[Dc] |[M:3/4] [DB]3 [B,=FG] [B,FA][G,FG] | [G,EG] [G,CE]3 [G,EG]>[^DA] | %8
 [DB]2 [EG]2 [FA]>G |[M:2/4] G4 |[M:1/4] B>B |[M:3/4] [FA]3 [Fc] [GB][FA] | B d3 d>d | %13
 ed B2 [DG]2 |[M:2/4] [FA]4 |[M:1/4] B>c |[M:3/4] d3 [DB] [DA][DG] | [CE] [EG]3 [Ec]>[Ec] | %18
 [^DB]3 [EG] [=DB]>[CA] |[M:2/4] [B,G]4 |] %20
V:2
 z2 z2 [G,,G,]>[G,,D,] | [G,,D,]3 [B,,G,] [C,G,C][E,G,B,] | %2
 [D,F,C]2 [G,,G,]2[K:treble] [G,D]>[G,A,D] | [G,B,G][K:bass][G,D] [F,A,D]2 [E,A,^C]2 | %4
[M:2/4] [D,F,D]4 |[M:1/4] [B,,G,]>[A,,F,] |[M:3/4] [G,,G,]3 G,, G,,B,, | C, C,3 C,>[C,G,] | %8
 [D,G,]2 [D,B,]2 [D,C]>[G,B,] |[M:2/4] [G,B,D]4 |[M:1/4] [G,D]>[G,D] | %11
[M:3/4] [D,D]3 [D,A,] [D,D][D,D] | [G,DG] [G,B,G]3 [G,B,G]>[G,B,G] | %13
 [G,CG][G,B,G] [G,DG]2[K:bass] B,,2 |[M:2/4] [D,D]4 |[M:1/4][K:treble] [G,G]>[G,A,G] | %16
[M:3/4] [G,B,G]3[K:bass] [G,,G,] [A,,F,][B,,G,] | [C,G,] [C,G,]3 [A,,F,]>[A,,F,] | %18
 [B,,F,]3 [C,E,] [D,F,]>[D,F,] |[M:2/4] [G,,G,]4 |] %20
V:3
 x6 | x6 | x6 | x6 |[M:2/4] z2 z[K:bass] C, |[M:1/4][K:treble] x2 |[M:3/4] x6 | x6 | x6 | %9
[M:2/4] x4 |[M:1/4] x2 |[M:3/4] x6 | x6 | x6 |[M:2/4] x4 |[M:1/4] x2 |[M:3/4] x6 | x6 | x6 | %19
[M:2/4] x4 |] %20

